X: 140
T: Rasberry Blossom
B: 204 Favourite Country Dances
N: Published by Straight & Skillern, London ca.1775
F: http://imslp.org/wiki/204_Favourite_Country_Dances_(Various) p.70 #140
Z: 2014 John Chambers <jc:trillian.mit.edu>
M: 6/8
L: 1/8
K: G
% - - - - - - - - - - - - - - - - - - - - - - - - -
g |\
dBG G2g | G2g GBd | e2d dBG | (e/f/g)B A2g |\
dBG g2G | g2G ABd | (e/f/g)A dBG | (ABA) G2 :|
|: d |\
(e/f/g)d Te2d | (e/f/g)e dBd | (e/f/g)d Te2d | (e/f/g)B A2d |\
(e/f/g)d g2B | g2B ABd | e2g dBG | ABA G2 :|
% - - - - - - - - - - - - - - - - - - - - - - - - -
%%begintext align
%% 1st Cu. cast off the Man hands 3 at Bottom
%% the Wo. at top at the same time .| 1st Man
%% Heys at Bottom the 1st Wo. at top at the
%% same time .||. Hands round 6 :|.  Right and Left :||:
%%endtext

%%sep 1 1 500
%%sep 1 1 500
